X: 21752
P: 2d sett.
M: C
L: 1/8
K: Am
EAAA AGAe | {e}d2d>c cGG2 |\
EAAA A>GAe | e>cd>e c<AA :| B |\
(3(aba) (3(gag) (3(ege) c>d | eg/e/ de/d/ c>GG2 |\
c>Acd e>dea | g>ed>e c<AA |]


